X:1
T:Merry Christmas Bells
T:Alonzo Judson Abbey
T:Merry Christmas Bells
T:Public Domain
T:Public Domain
T:Public Domain
C:Alonzo Judson Abbey
Z:Public Domain
%%score ( 1 2 ) ( 3 4 )
L:1/8
M:4/8
K:Ab
V:1 treble 
V:2 treble 
V:3 bass 
V:4 bass 
V:1
 [A,C]/[B,D]/ | [CE]/[CE]/[=B,=D]/[CE]/[_DF]/[CE]/[EA]/[E=B]/ | EE/E/E[FB]/[Fc]/ | %3
w: 1.~Hear the|crys- tal in- ton- a- tions of the|bells, Christ- mas bells, As their|
w: 2.~Hear the|sil- ver- y re- ech- oes of the|bells, Christ- mas bells, Not a|
w: 3.~Hear the|gay re- ver- ber- a- tions of the|bells, Christ- mas bells, And the|
 [Fd][DF][DF][DG] | (A2 E)[A,C]/[B,D]/ | [CE]/[CE]/[=B,=D]/[CE]/[_DF]/[CE]/[EA]/[E=B]/ | %6
w: float on the air.|It * is of|mer- ry Christ- mas that they tell, That|
w: of beau- ty lose;|Hear * the tid-|of re- demp- tion and of love, And|
w: ty of their strain;|But * re- mem-|in your mirth- ful- ness of heart, O-|
 EE/E/E[Ec]/[Ec]/ | [FB]/[Fd]/[Fc]/[FB]/[EA][EG] | [EA]3 [EG]/[FA]/ | [GB][GB][GB][Ac] | %10
w: they tell, And the mes- sage|to all they bear, They are|call- ing un-|to us, Let us|
w: of love, And be grate- ful|the bless- èd news, Tid- ings|of the rich-|est gift, Ev- er|
w: f heart, Our Re- deem- er’s|lent grief and pain; He was|born the lost|to save, Born to|
 [GB]3 [EG]/[FA]/ | [GB][GB][GB][Gc] | [GB]3 ||"^Refrain" [EG]/[FA]/ | [GB][GB][GB][Ge] | %15
w: list- en un-|to them, They are|tell-|ing of|the Child That was|
w: made since time|be- gan, Tell- ing|how|the Son|of God, Came to|
w: wash their sins|a- way, That is|why|we cher-|ish so, Each re-|
 [A=d]3 [Be]/[Be]/ | [Af][Af][A=d][Ad] | [Ge]3 || [Ac]/[Ad]/ | %19
w: born in Beth-|le- hem! * *|||
w: die for sin-|ful man! Hear the|mer-|ry, mer-|
w: turn- ing Christ-|mas day! * *|||
 [Ae]/[A=d]/[Ae]/[Ae]/[Ae]/[Ec]/[CA]/[=DB]/ | [Ec][CE] [Ec]2 | [Gd][FG] [Gd]2 | %22
w: |||
w: ry voic- es of the Christ- mas bells,|Christ- mas bells,|Christ- mas bells;|
w: |||
 [Ec][CE][Ec][Ac]/[Bd]/ | [Ae]/[A=d]/[Ae]/[Af]/[Ae]/[Ec]/[CA]/[=DB]/ | [Ec][CE] [Ec]2 | %25
w: |||
w: Hear the mer- ry, mer-|ry voic- es of the Christ- mas bells,|Oh, what joy|
w: |||
 [GB][Gd][Gc][FB] | [EA][EG] [EA]4 |] %27
w: ||
w: their mu- sic tells.||
w: ||
V:2
 x | x4 | c3 x | x4 | C3 x | x4 | c3 x | x4 | x4 | x4 | x4 | x4 | x3 || x | x4 | x4 | x4 | x3 || %18
w: ||tones||the||un-||||||||||||
w: ||strain||ings||for||||||||||||
w: ||beau-||ber||si-||||||||||||
 x | x4 | x4 | x4 | x4 | x4 | x4 | x4 | x6 |] %27
w: |||||||||
w: |||||||||
w: |||||||||
V:3
 [A,,A,]/[A,,A,]/ | [A,,B,]/[A,,A,]/[A,,A,]/[A,,A,]/[A,,A,]/[A,,A,]/[C,A,]/[E,G,]/ | %2
 A,[_A,C]/[A,C]/[A,C][D,B,]/[C,=A,]/ | [B,,B,][B,,B,][E,A,][E,B,] | [A,,A,]3 [A,,A,]/[A,,A,]/ | %5
 [A,,A,]/[A,,A,]/[A,,A,]/[A,,A,]/[A,,A,]/[A,,A,]/[C,A,]/[E,G,]/ | A,[A,C]/[A,C]/[A,C]A,/A,/ | %7
 [D,A,]/[D,A,]/[D,A,]/[D,D]/[E,C][E,B,] | [A,,C]3 z | [E,,E,][E,B,][E,B,][E,B,] | %10
 ([E,,E,][E,B,][E,B,])[E,B,] | [D,,E,][E,B,][E,B,][E,B,] | (E,[E,B,][E,B,]) || [E,B,]/[E,B,]/ | %14
 [E,B,][E,E][E,E][E,B,] | [F,B,]3 [G,B,]/[G,B,]/ | [A,C][A,C]B,[B,,B,] | [E,B,]3 || A,/[A,B,]/ | %19
 [A,C]/[A,=B,]/[A,C]/[A,_D]/[A,C]/A,/A,/A,/ | A,A, A,2 | [E,B,][E,B,] [E,B,]2 | A,A,A,A,/[A,B,]/ | %23
 [A,C]/[A,=B,]/[A,C]/[A,_D]/[A,C]/A,/A,/A,/ | A,A, A,2 | [E,E][E,E][A,E][D,D] | %26
 [E,C][E,B,] [A,,C]4 |] %27
V:4
 x | x4 | =A, x3 | x4 | x4 | x4 | A, x A,/A,/ x | x4 | x4 | x4 | x4 | x4 | E,,3 || x | x4 | x4 | %16
 x2 B, x | x3 || A,/ x/ | x5/2 A,/A,/A,/ | A,A, A,2 | x4 | A,A,A,A,/ x/ | x5/2 A,/A,/A,/ | %24
 A,A, A,2 | x4 | x6 |] %27

